X: 41753
T: Valse-Clog De Joseph Guilmette
R: waltz
M: 3/4
K: Bminor
|:g2|f2 Bc dB|f2 Bc dB|g2 gB gB|Bf fz zg|
f2 Bc dB|f2 Bc dB|c3 F F2|c2 fe fg|
f2 Bc dB|f2 Bc dB|g2 gB gB|Bf fz zg|
f2 g2 f2|e2 d2 c2|B2 FB df|bb b2:|
K: Dmaj
|:f2|a2 g2 B2|c4 B2|A2 f2 A2|B3 a a2|
a2 g2 B2|c2 f2 ze|e2 d2 B2|A3 a aa|
a2 g2 B2|c4 B2|A2 f2 A2|B3 a a2|
a2 g3 B|c2 f2 e2|d2 cd fa|d’2 z2:|

